icons/clipboard-cross.svg

<svg xmlns="http://www.w3.org/2000/svg" width="24" height="24" viewBox="0 0 24 24">
  <path d="M16,1 C16.5128358,1 16.9355072,1.38604019 16.9932723,1.88337887 L17,2 L17,3 L19,3 C20.1045695,3 21,3.8954305 21,5 L21,21 C21,22.1045695 20.1045695,23 19,23 L5,23 C3.8954305,23 3,22.1045695 3,21 L3,5 C3,3.8954305 3.8954305,3 5,3 L7,3 L7,2 C7,1.48716416 7.38604019,1.06449284 7.88337887,1.00672773 L8,1 L16,1 Z M10.6128994,11.2097046 C10.2206082,10.9046797 9.65337718,10.9324093 9.29289322,11.2928932 C8.90236893,11.6834175 8.90236893,12.3165825 9.29289322,12.7071068 L9.29289322,12.7071068 L10.585,14 L9.29289322,15.2928932 L9.20970461,15.3871006 C8.90467972,15.7793918 8.93240926,16.3466228 9.29289322,16.7071068 C9.68341751,17.0976311 10.3165825,17.0976311 10.7071068,16.7071068 L10.7071068,16.7071068 L12,15.415 L13.2928932,16.7071068 L13.3871006,16.7902954 C13.7793918,17.0953203 14.3466228,17.0675907 14.7071068,16.7071068 C15.0976311,16.3165825 15.0976311,15.6834175 14.7071068,15.2928932 L14.7071068,15.2928932 L13.415,14 L14.7071068,12.7071068 L14.7902954,12.6128994 C15.0953203,12.2206082 15.0675907,11.6533772 14.7071068,11.2928932 C14.3165825,10.9023689 13.6834175,10.9023689 13.2928932,11.2928932 L13.2928932,11.2928932 L12,12.585 L10.7071068,11.2928932 Z M15,3 L9,3 L9,5 L15,5 L15,3 Z"/>
</svg>

<svg xmlns="http://www.w3.org/2000/svg" viewBox="0 0 24 24">
  <path d="M16 1a1 1 0 0 1 1 .88V3h2a2 2 0 0 1 2 2v16a2 2 0 0 1-2 2H5a2 2 0 0 1-2-2V5c0-1.1.9-2 2-2h2V2a1 1 0 0 1 .88-1H16zm-5.39 10.21a1 1 0 0 0-1.32 1.5L10.6 14l-1.3 1.3-.08.09a1 1 0 0 0 1.5 1.32L12 15.4l1.3 1.3.09.08a1 1 0 0 0 1.32-1.5L13.4 14l1.3-1.3.08-.09a1 1 0 0 0-1.5-1.32L12 12.6l-1.3-1.3zM15 3H9v2h6V3z"/>
</svg>
